X:1
T:[ID 2-115]
T:[ID 2-115]
T:Bezeichnung standardisiert: Trau Tanz; S. Trau Tantz
T:Urheber unbekannt Datum in der hier transkribierten schriftlichen Quelle: 1792
C:Urheber unbekannt
C:Datum in der hier transkribierten schriftlichen Quelle: 1792
L:1/8
M:2/4
K:D
V:1 treble 
V:1
 A | defe | efgf | fd (d/e/f/g/) | a2 A2 | df fe/d/ | eg gf/e/ | fe/d/ e/g/e/c/ | d3 :: (3A/B/c/ | %10
 ddcB | A3 A | BcdB | A3 d | efgf | A3 g | f/a/f/d/ e/g/e/c/ | d3 :| %18

